app/dist/common/images/fg.svg

<svg height="18" viewBox="0 0 18 18" width="18" xmlns="http://www.w3.org/2000/svg"><path d="m0 0h18v18h-18z" fill="#164273"/><path d="m3 13v-8h5.74c-.25.19-.83.86-1.18 1.5h-3.06v1.5h2.42a5.85 5.85 0 0 0 0 1.5h-2.42v3.5zm11.59-6.17a3.57 3.57 0 0 0 -3.05-1.83c-2.1 0-4.2 1.23-4.2 4.21 0 2.74 2.18 3.79 3.91 3.79 1.75 0 3.75-.99 3.75-4.5h-3.33v1.5h1.63c-.07.55-.44 1.5-2.05 1.5-2 0-2.25-1.7-2.25-2.45s.3-2.55 2.33-2.55c1.1 0 1.78.64 1.97 1.02l1.29-.7z" fill="#fff"/></svg>

<!-- by TradingView --><svg width="18" height="18" viewBox="0 0 18 18" xmlns="http://www.w3.org/2000/svg"><path fill="#164273" d="M0 0h18v18H0z"/><path d="M3 13V5h5.74c-.25.19-.83.86-1.18 1.5H4.5V8h2.42a5.85 5.85 0 0 0 0 1.5H4.5V13H3Zm11.59-6.17A3.57 3.57 0 0 0 11.54 5c-2.1 0-4.2 1.23-4.2 4.21 0 2.74 2.18 3.79 3.91 3.79C13 13 15 12.01 15 8.5h-3.33V10h1.63c-.07.55-.44 1.5-2.05 1.5-2 0-2.25-1.7-2.25-2.45 0-.75.3-2.55 2.33-2.55 1.1 0 1.78.64 1.97 1.02l1.29-.7Z" fill="#fff"/></svg>
